!!!COM: Mozart
!!!OTL: Zwolf Variationen in C uber ein Menuett von Johann Christian Fischer
!!!Variation: Variation 4 c
**function	**harm	**kern	**kern
*	*	*clefF4	*clefG2
*	*	*k[]	*k[]
*M3/4	*M3/4	*M3/4	*M3/4
*C:	*C:	*C:	*C:
=109	=109	=109	=109
2D	2V	4GG 4G	16gLL
.	.	.	16gg
.	.	.	16ff#
.	.	.	16ggJJ
.	.	4r	16ffLL
.	.	.	16gg
.	.	.	16ee
.	.	.	16ggJJ
4D	4V7d	4FF 4F	16ddLL
.	.	.	16gg
.	.	.	16b
.	.	.	16ggJJ
=110	=110	=110	=110
2.D	2.Ib	4EE 4E	16ccLL
.	.	.	16gg
.	.	.	16ff#
.	.	.	16ggJJ
.	.	4r	16ffLL
.	.	.	16gg
.	.	.	16ee
.	.	.	16ggJJ
.	.	4E 4e	16ddLL
.	.	.	16gg
.	.	.	16cc#
.	.	.	16ggJJ
=111	=111	=111	=111
2.D	2.V7b	4BB 4B	16ddLL
.	.	.	16gg
.	.	.	16ff#
.	.	.	16ggJJ
.	.	4r	16ff#LL
.	.	.	16gg
.	.	.	16ff
.	.	.	16ggJJ
.	.	4BB 4B	16eeLL
.	.	.	16gg
.	.	.	16dd#
.	.	.	16ggJJ
=112	=112	=112	=112
4T	4I	(16CLL	4ee
.	.	16c	.
.	.	16B	.
.	.	16cJJ	.
*	*	*	*^
8T	8V7d/IV	16B-LL	4ccc	(8eeL
.	.	16c	.	.
8T	8IVb	16A	.	8ffJ)
.	.	16cJJ	.	.
8T	8Ic	16GLL	4ccc	(8ggL
.	.	16c	.	.
8T	8IV	16F	.	8aaJ)
.	.	16cJJ	.	.
=113	=113	=113	=113	=113
4T	4I	16ELL	4ccc	4gg
.	.	16c	.	.
.	.	16B	.	.
.	.	16cJJ	.	.
8T	8V7d/IV	16B-LL	4ccc	(8eeL
.	.	16c	.	.
8T	8IVb	16A	.	8ffJ)
.	.	16cJJ	.	.
8T	8Ic	16GLL	4ccc	(8ggL
.	.	16c	.	.
8T	8IV	16F	.	8aaJ)
.	.	16cJJ	.	.
=114	=114	=114	=114	=114
4T	4Ib	8E)	16ccLL	16gg
.	.	.	16g	16r
.	.	8r	16f#	8r
.	.	.	16gJJ	.
4T	4V7c	8D	16bLL	16ff
.	.	.	16g	16r
.	.	8r	16f#	8r
.	.	.	16gJJ	.
4T	4I	8C	16ccLL	16ee
.	.	.	16g	16r
.	.	8r	16f#	8r
.	.	.	16gJJ	.
=115	=115	=115	=115	=115
4T	4V7d	4FF 4F	16bLL	16dd
.	.	.	16g	16r
.	.	.	16f#	8r
.	.	.	16gJJ	.
4T	4Ib	4EE 4E	16ccLL	16ee
.	.	.	16g	16r
.	.	.	16f#	8r
.	.	.	16gJJ	.
4T	4V7c	4DD 4D	16ddLL	16ff
.	.	.	16g	16r
.	.	.	16f#	8r
.	.	.	16gJJ	.
=116	=116	=116	=116	=116
4T	4I	8C	16eeLL	16gg
.	.	.	16g	16r
.	.	8r	16f#	8r
.	.	.	16gJJ	.
4T	4V7b	8BB	16ddLL	16ff
.	.	.	16g	16r
.	.	8r	16f#	8r
.	.	.	16gJJ	.
4T	4I	8C	16ccLL	16ee
.	.	.	16g	16r
.	.	8r	16f#	8r
.	.	.	16gJJ	.
=117	=117	=117	=117	=117
2.D	2.V	(16GGLL	4b	4dd
.	.	16G	.	.
.	.	16F#	.	.
.	.	16GJJ	.	.
*	*	*	*v	*v
.	.	16GGLL	4r
.	.	16G	.
.	.	16FF	.
.	.	16FJJ	.
.	.	16EELL	4r
.	.	16E	.
.	.	16DD	.
.	.	16DJJ)	.
*-	*-	*-	*-
